X:675
T:Anglais
T:efter Alfred Petersson, Nättraby, Blekinge (SvL, Band 18, nr 283)
O:Nättraby, Blekinge
S:Svenska Låtar Blekinge nr 283
N:Svenska Låtar, Band 18 nr 283
R:Anglais
C:Alfred Petersson
M:4/4
L:1/8
Q:1/4=160
Z:Konverterad till abc-format av  Olle Paulsson 05-01-03
K:Bb
B>dc>e d>fd>B|c>eA>c B>d f2|B>dc>e d>fd>B|c>eA>c B2 z2:|
|:d2 (ba) (ag) g2|^f>ga>f g>ab>g|d2 (ba) (ag) g2|^f>ga>f g2 z2:|
(:musicend:)

(:music:)
